icon/cg/tikcode.svg

<svg width="24" height="24" fill="none" xmlns="http://www.w3.org/2000/svg"><path fill-rule="evenodd" clip-rule="evenodd" d="M9 5H5v4h4V5ZM3 3v8h8V3H3ZM19 5h-4v4h4V5Zm-6-2v8h8V3h-8ZM9 15H5v4h4v-4Zm-6-2v8h8v-8H3Z" fill="currentColor"/><path d="M13 13h2v8h-2v-8ZM16 13h2v8h-2v-8ZM19 13h2v8h-2v-8Z" fill="currentColor"/></svg>

<svg viewBox="0 0 24 24" fill="none" xmlns="http://www.w3.org/2000/svg" height="1em" width="1em">
  <path fill-rule="evenodd" clip-rule="evenodd" d="M9 5H5V9H9V5ZM3 3V11H11V3H3Z" fill="currentColor"/>
  <path fill-rule="evenodd" clip-rule="evenodd" d="M19 5H15V9H19V5ZM13 3V11H21V3H13Z" fill="currentColor"/>
  <path fill-rule="evenodd" clip-rule="evenodd" d="M9 15H5V19H9V15ZM3 13V21H11V13H3Z" fill="currentColor"/>
  <path d="M13 13H15V21H13V13Z" fill="currentColor"/>
  <path d="M16 13H18V21H16V13Z" fill="currentColor"/>
  <path d="M19 13H21V21H19V13Z" fill="currentColor"/>
</svg>
